X:1
T: Thomas Mark
C:
R:Strathspey
Q: 128
K:A
M:4/4
L:1/16
|:A4|A4 F3E CE3 c3B|A3B c3B AE3 E4|F4 A3F E3A d3c|CE3 d3c B4 c3d|
e3d cA3 d3c BG3|A3B c3A EA3 C3E|D3F A3d c3B A3F|CA3 c3B A4 E3D|
C3E c3E F3A d3F|E3A c3A B3G F3E|C3E c3E F3A d3F|E3A c3A B4 E3D|
C3E c3E F3A d3F|E3A c3A B3G F3E|C3E c3E F3A d3F|E3A c3B A4:|
